svgs/mull.svg

<svg xmlns="http://www.w3.org/2000/svg" viewBox="0 0 192 192"><path d="M96 162.526c-5.808-6.883-11.148-14.316-15.968-22.227A122.4 122.4 0 0 1 96 139.152a122.4 122.4 0 0 1 15.968 1.147c-4.82 7.911-10.16 15.344-15.968 22.227Zm32.459-132.282c2.02-4.191 4.922-7.669 8.413-10.081 3.492-2.413 7.45-3.676 11.475-3.663h23.41v27.825c-.001 5.307-1.261 10.504-3.631 14.979-2.369 4.476-5.752 8.045-9.748 10.288M96 22.674c-15.437-.177-30.597 4.975-43.677 14.843.878-.079 2.183-.173 3.063-.173 4.131.02 8.237.756 12.193 2.186a156.468 156.468 0 0 0-22.618 6.69q1.318-.118 2.637-.119c2.54.034 5.024.915 7.174 2.544C37.013 60.976 23.73 80.893 17.57 104.429c4.704-4.125 10.315-6.496 16.13-6.814-8.196 5.204-16.376 16.407-17.2 27.516 4.94-2.6 10.144-4.404 15.476-5.368-5.191 3.73-9.444 9.086-12.303 15.497 5.581-3.483 11.777-5.301 18.064-5.302 13.002 0 25.091 12.509 32.808 26.387a54.978 54.978 0 0 1 3.238 7.275c.969 3.248 2.693 6.094 4.965 8.199 2.272 2.105 4.999 3.383 7.855 3.681a11.02 11.02 0 0 0 5.124-1.283c1.617-.847 3.071-2.085 4.273-3.637 1.202 1.552 2.657 2.79 4.273 3.636a11.022 11.022 0 0 0 5.124 1.282c2.856-.298 5.583-1.576 7.855-3.681 2.272-2.105 3.996-4.951 4.965-8.199a54.978 54.978 0 0 1 3.238-7.275c7.717-13.879 19.806-26.387 32.808-26.387 6.287.001 12.483 1.819 18.064 5.302-2.859-6.41-7.112-11.767-12.303-15.496 5.332.963 10.536 2.767 15.476 5.367-.824-11.108-9.004-22.311-17.2-27.517 5.815.318 11.427 2.688 16.132 6.814-6.161-23.537-19.444-43.454-37.204-55.785 2.15-1.63 4.634-2.51 7.174-2.544q1.322 0 2.637.119a156.342 156.342 0 0 0-22.618-6.69 36.318 36.318 0 0 1 12.193-2.186c.88 0 2.185.094 3.063.173-13.08-9.867-28.241-15.017-43.677-14.839Zm18.435 2.661c-4.181 21.489-6.287 43.487-6.275 65.557a346.49 346.49 0 0 0 1.523 32.439c4.901 2.912 9.291 6.933 12.929 11.844.023-.196.06-.484.086-.68 3.335-25.492 21.223-47.102 42.305-54.093m-49.944 17.461c-3.141-8.107-1.655-16.943 3.32-19.735 4.974-2.793 11.554 1.517 14.695 9.625 3.141 8.107 1.655 16.943-3.32 19.736-4.975 2.791-11.554-1.518-14.695-9.626Zm2.707-5.713c0-1.674.473-3.298 1.339-4.607.867-1.308 2.078-2.224 3.433-2.596 1.356-.373 2.777-.18 4.03.546 1.252.726 2.264 1.943 2.867 3.451a8.77 8.77 0 0 1 .454 4.849c-.31 1.632-1.07 3.089-2.157 4.132-1.087 1.044-2.437 1.612-3.827 1.612-1.628 0-3.19-.779-4.341-2.164-1.15-1.384-1.798-3.265-1.798-5.223Z" fill="none" stroke="#000" stroke-width="8" stroke-linecap="round" stroke-linejoin="round"/><path d="M33.622 69.592c-3.996-2.243-7.378-5.812-9.748-10.288-2.37-4.475-3.63-9.672-3.631-14.979V16.5h23.41c4.025-.013 7.984 1.25 11.475 3.663 3.491 2.412 6.393 5.89 8.413 10.081M26.997 80.403c21.082 6.991 38.972 28.602 42.305 54.093.027.197.062.484.086.681 3.638-4.912 8.028-8.933 12.929-11.844a346.17 346.17 0 0 0 1.523-32.44c.012-22.07-2.094-44.068-6.275-65.557m-.624 72.527c-3.141 8.108-9.72 12.416-14.695 9.626-4.975-2.792-6.461-11.629-3.32-19.736 3.141-8.108 9.721-12.416 14.695-9.625 4.975 2.79 6.461 11.628 3.32 19.735Zm-2.707-5.713c0 1.958-.648 3.839-1.798 5.223-1.151 1.385-2.713 2.164-4.34 2.164-1.391 0-2.741-.568-3.828-1.612-1.087-1.043-1.847-2.5-2.157-4.132a8.77 8.77 0 0 1 .454-4.849c.604-1.508 1.615-2.725 2.867-3.451 1.253-.726 2.674-.919 4.03-.546 1.355.372 2.566 1.288 3.433 2.596.866 1.309 1.339 2.933 1.339 4.607Z" fill="none" stroke="#000" stroke-width="8" stroke-linecap="round" stroke-linejoin="round"/></svg>

<svg
    xmlns="http://www.w3.org/2000/svg"
    viewBox="0 0 192 192"
    id="vector">
    <path
        id="path"
        d="M 96 162.526 C 90.192 155.643 84.852 148.21 80.032 140.299 C 85.333 139.568 90.664 139.185 96 139.152 C 101.336 139.185 106.667 139.568 111.968 140.299 C 107.148 148.21 101.808 155.643 96 162.526 Z M 128.459 30.244 C 130.479 26.053 133.381 22.575 136.872 20.163 C 140.364 17.75 144.322 16.487 148.347 16.5 L 171.757 16.5 L 171.757 44.325 C 171.756 49.632 170.496 54.829 168.126 59.304 C 165.757 63.78 162.374 67.349 158.378 69.592 M 96 22.674 C 80.563 22.497 65.403 27.649 52.323 37.517 C 53.201 37.438 54.506 37.344 55.386 37.344 C 59.517 37.364 63.623 38.1 67.579 39.53 C 59.928 41.174 52.373 43.409 44.961 46.22 Q 46.279 46.102 47.598 46.101 C 50.138 46.135 52.622 47.016 54.772 48.645 C 37.013 60.976 23.73 80.893 17.57 104.429 C 22.274 100.304 27.885 97.933 33.7 97.615 C 25.504 102.819 17.324 114.022 16.5 125.131 C 21.44 122.531 26.644 120.727 31.976 119.763 C 26.785 123.493 22.532 128.849 19.673 135.26 C 25.254 131.777 31.45 129.959 37.737 129.958 C 50.739 129.958 62.828 142.467 70.545 156.345 C 71.786 158.66 72.869 161.093 73.783 163.62 C 74.752 166.868 76.476 169.714 78.748 171.819 C 81.02 173.924 83.747 175.202 86.603 175.5 C 88.366 175.5 90.111 175.063 91.727 174.217 C 93.344 173.37 94.798 172.132 96 170.58 C 97.202 172.132 98.657 173.37 100.273 174.216 C 101.89 175.062 103.634 175.498 105.397 175.498 C 108.253 175.2 110.98 173.922 113.252 171.817 C 115.524 169.712 117.248 166.866 118.217 163.618 C 119.131 161.091 120.214 158.658 121.455 156.343 C 129.172 142.464 141.261 129.956 154.263 129.956 C 160.55 129.957 166.746 131.775 172.327 135.258 C 169.468 128.848 165.215 123.491 160.024 119.762 C 165.356 120.725 170.56 122.529 175.5 125.129 C 174.676 114.021 166.496 102.818 158.3 97.612 C 164.115 97.93 169.727 100.3 174.432 104.426 C 168.271 80.889 154.988 60.972 137.228 48.641 C 139.378 47.011 141.862 46.131 144.402 46.097 Q 145.724 46.097 147.039 46.216 C 139.627 43.404 132.072 41.17 124.421 39.526 C 128.377 38.096 132.483 37.36 136.614 37.34 C 137.494 37.34 138.799 37.434 139.677 37.513 C 126.597 27.646 111.436 22.496 96 22.674 Z M 114.435 25.335 C 110.254 46.824 108.148 68.822 108.16 90.892 C 108.161 101.731 108.669 112.561 109.683 123.331 C 114.584 126.243 118.974 130.264 122.612 135.175 C 122.635 134.979 122.672 134.691 122.698 134.495 C 126.033 109.003 143.921 87.393 165.003 80.402 M 115.059 97.863 C 111.918 89.756 113.404 80.92 118.379 78.128 C 123.353 75.335 129.933 79.645 133.074 87.753 C 136.215 95.86 134.729 104.696 129.754 107.489 C 124.779 110.28 118.2 105.971 115.059 97.863 Z M 117.766 92.15 C 117.766 90.476 118.239 88.852 119.105 87.543 C 119.972 86.235 121.183 85.319 122.538 84.947 C 123.894 84.574 125.315 84.767 126.568 85.493 C 127.82 86.219 128.832 87.436 129.435 88.944 C 130.038 90.451 130.198 92.162 129.889 93.793 C 129.579 95.425 128.819 96.882 127.732 97.925 C 126.645 98.969 125.295 99.537 123.905 99.537 C 122.277 99.537 120.715 98.758 119.564 97.373 C 118.414 95.989 117.766 94.108 117.766 92.15 Z"
        fill="none"
        stroke="#000000"
        stroke-width="8"
        stroke-linecap="round"
        stroke-linejoin="round"/>
    <path
        id="path_1"
        d="M 33.622 69.592 C 29.626 67.349 26.244 63.78 23.874 59.304 C 21.504 54.829 20.244 49.632 20.243 44.325 L 20.243 16.5 L 43.653 16.5 C 47.678 16.487 51.637 17.75 55.128 20.163 C 58.619 22.575 61.521 26.053 63.541 30.244 M 26.997 80.403 C 48.079 87.394 65.969 109.005 69.302 134.496 C 69.329 134.693 69.364 134.98 69.388 135.177 C 73.026 130.265 77.416 126.244 82.317 123.333 C 83.331 112.563 83.84 101.732 83.84 90.893 C 83.852 68.823 81.746 46.825 77.565 25.336 M 76.941 97.863 C 73.8 105.971 67.221 110.279 62.246 107.489 C 57.271 104.697 55.785 95.86 58.926 87.753 C 62.067 79.645 68.647 75.337 73.621 78.128 C 78.596 80.918 80.082 89.756 76.941 97.863 Z M 74.234 92.15 C 74.234 94.108 73.586 95.989 72.436 97.373 C 71.285 98.758 69.723 99.537 68.096 99.537 C 66.705 99.537 65.355 98.969 64.268 97.925 C 63.181 96.882 62.421 95.425 62.111 93.793 C 61.802 92.162 61.962 90.451 62.565 88.944 C 63.169 87.436 64.18 86.219 65.432 85.493 C 66.685 84.767 68.106 84.574 69.462 84.947 C 70.817 85.319 72.028 86.235 72.895 87.543 C 73.761 88.852 74.234 90.476 74.234 92.15 Z"
        fill="none"
        stroke="#000000"
        stroke-width="8"
        stroke-linecap="round"
        stroke-linejoin="round"/>
</svg>
